X:1
T:Joys of Quebec
R:reel
M:C|
K:A
ee| "A"eccc c2ee| eccc c2ee|"A" fAeA "A#"dAcA| "Bm"dBBB B2dd|
"E7"dBBB B2dd| dBBB B2(3Bcd| |1 "E7"e2e2 g2g2| "B7"fe^df "E7"e2 :|2"E7"e2e2 fefg| "A"a6 |]
|:cd| "A"e2 z2 "D" f2 z2| "A"e3 f e2 AB|"F#m"c2cc "Bm"d2dd| "F#m"c3d c2 cd|
"Bm"cBA2 G2A2| "E7"B3c B2Bc|1 "E7"d2e2 gfeg| "B7"fe^df "E7"e2 :|2 "E7"d2e2 fefg| "A"a6 |]
